images/case-logo.svg

<svg fill="none" height="100" viewBox="0 0 138 100" width="138" xmlns="http://www.w3.org/2000/svg" xmlns:xlink="http://www.w3.org/1999/xlink"><clipPath id="a"><path d="m0 0h137.088v99.4312h-137.088z"/></clipPath><g clip-path="url(#a)"><path d="m66.1463 99.4312c10.9736 0 20.6509-5.2879 26.3626-13.3283 2.2612 1.2799 4.8197 1.9499 7.4216 1.9435 7.9975 0 14.4795-6.1594 14.4795-13.7624 0-.365-.02-.7268-.05-1.0852 3.521-.4948 6.894-1.7341 9.892-3.6344 2.998-1.9004 5.551-4.4176 7.488-7.3821 3.471-4.4791 5.355-9.9728 5.361-15.627 0-14.6535-12.498-26.5316-27.917-26.5316-2.67-.0006-5.327.3634-7.897 1.0819-4.0784-12.22664-16.1137-21.1056-30.3319-21.1056-11.9063 0-19.7083 3.9462-26.3626 13.3283-2.2613-1.2797-4.8197-1.9496-7.4216-1.9435-7.9971 0-14.4794 6.1627-14.4794 13.7624 0 .365.0198.7267.0463 1.0852-3.5201.4958-6.8924 1.7359-9.8899 3.6368-2.99739 1.9009-5.55031 4.4184-7.48677 7.383-2.27645 2.9492-3.88829 6.3508-4.726152 9.974-.185209.8155-.330731 1.6442-.439873 2.4894-.373467 3.0062-.2100004 6.0543.482869 9.0039.21641.9057.481376 1.7993.793756 2.6769 3.73396 10.4738 14.16197 18.0144 26.45857 18.0144 2.6712-.0003 5.3298-.3654 7.9011-1.0852 4.0482 12.2365 16.0934 21.1056 30.3149 21.1056z" fill="#ede7f0"/><path d="m58.6685 34.1051v31.2243l27.2026-15.6138" fill="#7c0c84"/></g></svg>

<svg width="138" height="100" viewBox="0 0 138 100" fill="none" xmlns="http://www.w3.org/2000/svg">
<g clip-path="url(#clip0)">
<path d="M66.1463 99.4312C77.1199 99.4312 86.7972 94.1433 92.5089 86.1029C94.7701 87.3828 97.3286 88.0528 99.9305 88.0464C107.928 88.0464 114.41 81.887 114.41 74.284C114.41 73.919 114.39 73.5572 114.36 73.1988C117.881 72.704 121.254 71.4647 124.252 69.5644C127.25 67.664 129.803 65.1468 131.74 62.1823C135.211 57.7032 137.095 52.2095 137.101 46.5553C137.101 31.9018 124.603 20.0237 109.184 20.0237C106.514 20.0231 103.857 20.3871 101.287 21.1056C97.2086 8.87896 85.1733 0 70.9551 0C59.0488 0 51.2468 3.9462 44.5925 13.3283C42.3312 12.0486 39.7728 11.3787 37.1709 11.3848C29.1738 11.3848 22.6915 17.5475 22.6915 25.1472C22.6915 25.5122 22.7113 25.8739 22.7378 26.2324C19.2177 26.7282 15.8454 27.9683 12.8479 29.8692C9.85051 31.7701 7.29759 34.2876 5.36113 37.2522C3.08468 40.2014 1.47284 43.603 0.634978 47.2262C0.449769 48.0417 0.304247 48.8704 0.195105 49.7156C-0.178362 52.7218 -0.0148954 55.7699 0.677974 58.7195C0.894384 59.6252 1.15935 60.5188 1.47173 61.3964C5.20569 71.8702 15.6337 79.4108 27.9303 79.4108C30.6015 79.4105 33.2601 79.0454 35.8314 78.3256C39.8796 90.5621 51.9248 99.4312 66.1463 99.4312Z" fill="#EDE7F0"/>
<path d="M58.6685 34.1051V65.3294L85.8711 49.7156" fill="#7C0C84"/>
</g>
<defs>
<clipPath id="clip0">
<rect width="137.088" height="99.4312" fill="white"/>
</clipPath>
</defs>
</svg>
